packages/icons/src/__generated__/nav/svg/nav-proProduct-12-inactive.svg

<svg xmlns="http://www.w3.org/2000/svg" fill="#1652F0" viewBox="0 0 12 12"><path d="M7.989.995h-4v2.5h-3v5h3v2.5h4v-2.5h3v-5h-3v-2.5Zm0 3.7h1.8v2.6h-1.8v-2.6Zm-4 2.6h-1.8v-2.6h1.8v2.6Zm2.8 2.5h-1.6v-7.6h1.6v7.6Z"/></svg>

<svg xmlns="http://www.w3.org/2000/svg" fill="#1652F0" viewBox="0 0 12 12"><path d="M8 1H4v2.5H1v5h3V11h4V8.5h3v-5H8V1Zm0 3.7h1.8v2.6H8V4.7ZM4 7.3H2.2V4.7H4v2.6Zm2.8 2.5H5.2V2.2h1.6v7.6Z"/></svg>
